X:1
T:Adieu mes amours - Mouton
T:James Gibb editions
T:#
%%score [ 1 2 3 4 ]
L:1/8
Q:1/4=180
M:none
K:F
V:1 treble nm="Soprano" snm="S"
V:2 treble nm="Alto" snm="A"
V:3 treble-8 nm="Tenor" snm="T"
V:4 bass nm="Bass" snm="B"
V:1
"^Adieu mes amours""^Jean Mouton\n(1459-1522)" G8 B8 | A8 G8 | d8 z4 c4- | c4 B4 A8 | G8 F8- | %5
w: A- dieu,|mes a-|mours, A\-|* dieu, vous|com- mand,|
 F8 z4 G4 | A4 A4 c8 | d8 z8 | z4 G4 A4 A4 | c8 d8 | c8 (B4 G4) | A8 G8 | (F6 G2 A2 B2 c4- | %13
w: * A-|dieu, je vous|dy,|A- dieu, je|vous dy,|Jus- quez *|au bons|temps. * * * *|
 c2 B2 G4 A6 B2 | c4 A4 D4 G4- | G4 ^F4 G8) | z4 A4 B4 B4 | (A6 B2 c2 d2 c4- | c4 B4) c4 c4 | %19
w: |||Je suis en|sou\- * * * `|* * ci de|
 B4 G4 A8 | (G8 B8 | A4 F4) z4 G4 | (A6 B2 c2 d2) c4- | c4 B4 c8 | z4 G4 D4 G4- | G4 ^F4 G8 | %26
w: quoy je vi-|vray. *|* * La|rai\- * * * son|* pour quoy,|je le vous|* di- ray:|
 z4 A4 B8 | A8 G8 | d8 z4 c4- | c4 B4 A8 | G8 F8- | F8 z4 G4 | A4 A4 c8 | d8 z8 | z4 G4 A4 A4 | %35
w: Je n'ay|point d'ar-|gent. Vi\-|* vray je|du vent|* Si|l'ar- gent du|roy,|Si l'ar- gent|
 c8 d8 | c8 (B4 G4) | A8 G8 | (F6 G2 A2 B2 c4- | c2 B2 G4 A6 B2 | c4 A4 D4 G4- | G4 ^F4 G8 | %42
w: du roy|ne vient *|plus sou-|vent? * * * *||||
 A8 G8- | G8) |] %44
w: ||
V:2
 z8 D8 | F8 E8 | D8 A8 | z4 G8 F4 | E8 D8 | C16 | z4 D4 E4 E4 | G8 A8 | z8 z4 D4 | E4 E4 G8 | %10
w: A-|dieu, mes|a- mours,|A- dieu,|vous com-|mand,|A- dieu, je|vous dy,|A-|dieu, je vous|
 A8 G8 | (F4 D4) E8 | D8 (C6 D2 | E2 F2 G6 F2 D4 | E6 F2 G4 E4 | A,4 D8 ^C4 | D8) z4 E4 | %17
w: dy, Jus-|quez * au|bons temps. *||||* Je|
 F4 F4 (E6 F2 | G2 A2 G8 ^F4) | G4 G4 =F4 D4 | E8 (D8 | F8 E4 C4) | z4 C4 (E6 F2 | G2 A2) G8 ^F4 | %24
w: suis en sou\- *||ci de quoy je|vi- vray.||La rai\- *|* * son pour|
 G8 z4 D4 | A,4 D8 ^C4 | D8 z4 E4 | F8 E8 | D8 A8 | z4 G8 F4 | E8 D8 | C16 | z4 D4 E4 E4 | G8 A8 | %34
w: quoy, je|le vous di-|ray: je|n'ay point|d'ar- gent.|Vi- vray|je du|vent,|Si l'ar- gent|du roy,|
 z8 z4 D4 | E4 E4 G8 | A8 G8 | (F4 D4) E8 | D8 (C6 D2 | E2 F2 G6 F2 D4 | E6 F2 G4 E4 | A,4 D8 ^C4 | %42
w: Si|l'ar- gent du|roy ne|vient * plus|sou- vent? *||||
 D8 E8 | D8) |] %44
w: ||
V:3
 z16 | z16 | z16 | z16 | G8 B8 | A8 G8 | d8 z4 c4- | c4 B4 A8 | G8 F8 | z16 | z16 | z8 z4 G4 | %12
w: ||||A- dieu,|mes a-|mours, A\-|* dieu, vous|com- mand,|||A-|
 B8 A8 | G8 d8 | c8 B4 G4 | A8 G8 | z8 G8 | d4 d4 c8 | d8 z8 | z16 | c8 B4 G4 | A8 G4 G4 | %22
w: dieu, je|vous dy,|Jus- quez au|bons temps.|Je|suis en sou-|ci||de quoy je|vi- vray. La|
 d4 d4 c8 | d8 z8 | c8 B4 G4 | A8 G8 | z16 | z16 | z16 | z16 | G8 B8 | A8 G8 | d8 z4 c4- | %33
w: rai- son pour|quoy,|je le vous|di- ray:|||||Je n'ay|point d'ar-|gent. Vi\-|
 c4 B4 A8 | G8 F8 | z16 | z16 | z8 G8 | B8 A8 | G8 d8 | c8 (B4 G4 | A8) G8 | z8 c8 | =B8 |] %44
w: * vray je|du vent,|||Se|l'ar- gent|du roy|ne vient *|* plus|sou-|vent?|
V:4
 z16 | z16 | z16 | z16 | z8 D,8 | F,8 E,8 | D,8 A,8 | z4 G,8 F,4 | E,8 D,8 | C,8 z8 | z16 | z16 | %12
w: ||||A-|dieu, mes|a- mours,|A- dieu,|vous com-|mand,|||
 z4 D,4 F,8 | E,8 D,8 | A,8 G,8 | F,4 D,4 E,8 | D,8 z8 | D,8 A,4 A,4 | G,8 A,8 | z16 | z8 G,8 | %21
w: A- dieu,|je vous|dy, Jus-|quez au bons|temps.|Je suis en|sou- ci||de|
 F,4 D,4 E,8 | D,4 D,4 A,4 A,4 | G,8 A,8 | z8 G,8 | F,4 D,4 E,8 | D,8 z8 | z16 | z16 | z16 | %30
w: quoy je vi-|vray. La rai- son|pour quoy,|je|le vous di-|ray:||||
 z8 D,8 | F,8 E,8 | D,8 A,8 | z4 G,8 F,4 | E,8 D,8 | C,8 z8 | z16 | z16 | D,8 F,8 | E,8 D,8 | %40
w: Je|n'ay point|d'ar- gent.|Vi- vray|je du|vent,|||Se l'ar-|gent du|
 A,8 G,8 | (F,4 D,4) E,8 | D,8 z8 | G,8 |] %44
w: roy ne|vient * plus|sou-|vent?|

